X: 25
T:Cooley's Reel
M:C|
L:1/8
R:Reel
K:EDor
D[|:EBBA B2EB|B2AB dBAG|(3FED AD BDAD|FDFA dAFD|!
EBBA B2EB|B2AB defg|afge dBAF|1DEFD E3D:|2DEFD E2gf|!
|:eB~B2 eBgB|eB~B2 gedB|A2FA DAFA|BAFA defg|!
eB~B2 "var."egfg|eBBA defg|afge dBAF|1DEFD E2gf:|2DEFD E3D|]!
